docs/local/img/sprites/filter.svg

<svg width="27" height="23" viewBox="0 0 27 23" fill="none" xmlns="http://www.w3.org/2000/svg">
<path d="M20.25 4.66C20.25 2.22775 18.2722 0.25 15.84 0.25H4.41C1.97775 0.25 0 2.22775 0 4.66C0 5.71187 0.376875 6.73112 1.062 7.52987L6.75 14.1663V18.25C6.75 18.6044 6.9165 18.9374 7.2 19.15L11.7 22.525C11.8991 22.6735 12.1365 22.75 12.375 22.75C12.546 22.75 12.7192 22.7106 12.8779 22.6319C13.2592 22.4417 13.5 22.0514 13.5 21.625V14.1663L19.188 7.52987C19.8731 6.73112 20.25 5.71187 20.25 4.66ZM17.4802 6.06625L11.5211 13.0188C11.3468 13.2224 11.25 13.4823 11.25 13.7511V19.3761L9 17.6886V13.7511C9 13.4823 8.90438 13.2224 8.72888 13.0188L2.76975 6.06512C2.4345 5.67362 2.25 5.17413 2.25 4.65887C2.25 3.4675 3.21863 2.49888 4.41 2.49888H15.84C17.0314 2.49888 18 3.4675 18 4.65887C18 5.17413 17.8155 5.67475 17.4802 6.06625ZM27 20.5011C27 21.1221 26.496 21.6261 25.875 21.6261H16.875C16.254 21.6261 15.75 21.1221 15.75 20.5011C15.75 19.8801 16.254 19.3761 16.875 19.3761H25.875C26.496 19.3761 27 19.8801 27 20.5011ZM27 16.0011C27 16.6221 26.496 17.1261 25.875 17.1261H16.875C16.254 17.1261 15.75 16.6221 15.75 16.0011C15.75 15.3801 16.254 14.8761 16.875 14.8761H25.875C26.496 14.8761 27 15.3801 27 16.0011ZM20.25 10.3761H25.875C26.496 10.3761 27 10.8801 27 11.5011C27 12.1221 26.496 12.6261 25.875 12.6261H20.25C19.629 12.6261 19.125 12.1221 19.125 11.5011C19.125 10.8801 19.629 10.3761 20.25 10.3761Z" fill="#3DAE2B"/>
</svg>

<svg width="27" height="23" viewBox="0 0 27 23" fill="none" xmlns="http://www.w3.org/2000/svg"><path d="M20.25 4.66A4.414 4.414 0 0015.84.25H4.41a4.41 4.41 0 00-3.348 7.28l5.688 6.636v4.084c0 .354.167.687.45.9l4.5 3.375a1.13 1.13 0 001.178.107c.381-.19.622-.58.622-1.007v-7.459l5.688-6.636a4.41 4.41 0 001.062-2.87zm-2.77 1.406l-5.959 6.953a1.127 1.127 0 00-.271.732v5.625L9 17.69v-3.94a1.12 1.12 0 00-.271-.732l-5.96-6.954A2.162 2.162 0 014.41 2.5h11.431a2.162 2.162 0 011.64 3.567zM27 20.501c0 .621-.504 1.125-1.125 1.125h-9a1.125 1.125 0 010-2.25h9c.621 0 1.125.504 1.125 1.125zm0-4.5c0 .621-.504 1.125-1.125 1.125h-9a1.125 1.125 0 010-2.25h9c.621 0 1.125.504 1.125 1.125zm-6.75-5.625h5.625a1.125 1.125 0 010 2.25H20.25a1.125 1.125 0 010-2.25z" fill="#3DAE2B"/></svg>
